X:1
T:Under Thy Wings, 10.10.12.10
T:Under Thy Wings, 10.10.12.10
T:Horace Lorenzo Hastings, 1879
T:Public Domain Courtesy of the Cyber Hymnal™
C:Horace Lorenzo Hastings, 1879
Z:Public Domain
Z:Courtesy of the Cyber Hymnal™
%%score ( 1 2 ) ( 3 4 )
L:1/8
Q:1/4=108
M:3/4
K:Eb
V:1 treble 
V:2 treble 
V:3 bass 
V:4 bass 
V:1
 E2 E2 [EG]2 | [EB]3 [EG] [DF]2 | E2 E2 [EB]2 | [DF]6 | E2 E2 [CF]2 | [B,G]3 [DF] E2 | %6
 [EB]2 [DB]2 [DF]2 | E6 | [DF]2 [EF]2 [DF]2 | [FB]3 [DB] [EG]2 | [Ec]2 [Ec]2 [E_d]2 | %11
 [Ec]3 [EB] [EG]2 | [DF]2 [DF]2 [DA]2 | [Dc]3 [DB] [EG]2 | [EB]2 [DG]2 [DF]2 | E3 |] %16
V:2
 E2 E2 x2 | x6 | E2 E2 x2 | x6 | E2 E2 x2 | x4 E2 | x6 | E6 | x6 | x6 | x6 | x6 | x6 | x6 | x6 | %15
 E3 |] %16
V:3
 [E,G,]2 [E,G,]2 [E,B,]2 | [E,G,]3 [E,B,] [B,,B,]2 | [C,G,]2 [C,G,]2 [G,,E,]2 | (F,2 B,4) | %4
 [E,G,]2 [C,G,]2 [A,,A,]2 | [B,,E,]3 [B,,A,] [E,G,]2 | [E,G,]2 [B,,F,]2 [B,,A,]2 | [E,G,]6 | %8
 [B,,B,]2 [=A,,C]2 [B,,B,]2 | [B,,D]3 [B,,B,] [E,B,]2 | [E,A,]2 [E,A,]2 [E,B,]2 | %11
 [E,A,]3 [E,G,] [E,B,]2 | [B,,B,]2 [B,,B,]2 [B,,B,]2 | [B,,B,]3 [B,,B,] [E,B,]2 | %14
 [G,,B,]2 [B,,B,]2 [B,,A,]2 | [E,G,]3 |] %16
V:4
 x6 | x6 | x6 | B,,6 | x6 | x6 | x6 | x6 | x6 | x6 | x6 | x6 | x6 | x6 | x6 | x3 |] %16

